polaris-icons/icons/newicons/FraudProtectUnprotectedMajor.svg

<svg width="20" height="20" viewBox="0 0 20 20" fill="none" xmlns="http://www.w3.org/2000/svg">
<path fill-rule="evenodd" clip-rule="evenodd" d="M15.3827 5.58772L16.3189 4.65154C16.6118 4.35864 16.6118 3.88377 16.3189 3.59088C16.026 3.29798 15.5511 3.29798 15.2582 3.59088L3.59098 15.2581C3.29809 15.551 3.29809 16.0259 3.59098 16.3188C3.88388 16.6117 4.35875 16.6117 4.65164 16.3188L6.06954 14.9009C7.30908 16.2782 8.59659 17.0937 9.23843 17.4508C9.71422 17.7155 10.2858 17.7155 10.7616 17.4508C12.1648 16.67 16.6542 13.6984 16.9813 7.45474C17.0209 6.69857 16.5506 6.04584 15.8887 5.78636L15.4687 5.62172C15.44 5.61048 15.4113 5.59914 15.3827 5.58772ZM14.238 6.73242L7.13157 13.8389C8.23219 15.0822 9.38846 15.8177 9.96771 16.14C9.98112 16.1474 9.99187 16.1493 9.99999 16.1493C10.0081 16.1493 10.0189 16.1474 10.0323 16.14C11.2788 15.4465 15.1972 12.8395 15.4833 7.37628C15.4868 7.31072 15.4454 7.22373 15.3412 7.1829L14.9212 7.01826C14.6912 6.92807 14.4634 6.83276 14.238 6.73242Z" fill="black"/>
<path d="M3.01871 7.45474C3.12127 9.41283 3.63322 11.0491 4.33098 12.3969L5.45422 11.2737C4.95278 10.1797 4.5958 8.88725 4.51666 7.37628C4.51323 7.31071 4.55458 7.22373 4.65875 7.1829L5.07875 7.01826C6.82399 6.33413 8.4386 5.35503 9.85206 4.12376C9.93685 4.04989 10.0631 4.04989 10.1479 4.12376C10.5888 4.50777 11.0492 4.86726 11.527 5.20091L12.606 4.12192C12.0929 3.77717 11.6009 3.40015 11.1332 2.99272C10.4837 2.42691 9.51632 2.42691 8.86679 2.99272C7.58299 4.11105 6.11647 5.00034 4.53131 5.62172L4.11131 5.78636C3.44938 6.04584 2.97911 6.69857 3.01871 7.45474Z" fill="black"/>
</svg>

<svg viewBox="0 0 20 20" fill="none" xmlns="http://www.w3.org/2000/svg"><path fill-rule="evenodd" clip-rule="evenodd" d="m15.383 5.588.936-.936a.75.75 0 1 0-1.06-1.061l-11.668 11.667a.75.75 0 0 0 1.06 1.06l1.419-1.417a12.666 12.666 0 0 0 3.168 2.55 1.56 1.56 0 0 0 1.524 0c1.403-.781 5.892-3.753 6.22-9.996a1.704 1.704 0 0 0-1.093-1.669l-.42-.164a13.963 13.963 0 0 1-.086-.034Zm-1.145 1.144-7.106 7.107a11.106 11.106 0 0 0 2.836 2.301c.013.007.024.01.032.01a.066.066 0 0 0 .032-.01c1.247-.694 5.165-3.3 5.451-8.764.004-.065-.038-.152-.142-.193l-.42-.165c-.23-.09-.458-.185-.683-.286Z" fill="#000"/><path d="M3.019 7.455c.102 1.958.614 3.594 1.312 4.942l1.123-1.123a10.603 10.603 0 0 1-.937-3.898c-.004-.065.038-.152.142-.193l.42-.165a16.354 16.354 0 0 0 4.773-2.894.225.225 0 0 1 .296 0c.44.384.901.743 1.379 1.077l1.079-1.08a14.854 14.854 0 0 1-1.473-1.128 1.725 1.725 0 0 0-2.266 0 14.854 14.854 0 0 1-4.336 2.629l-.42.164a1.704 1.704 0 0 0-1.092 1.669Z" fill="#000"/></svg>
